public/icon/Z_ALL/Github.svg

<?xml version="1.0" encoding="UTF-8"?>
<svg width="1024px" height="1024px" viewBox="0 0 1024 1024" version="1.1" xmlns="http://www.w3.org/2000/svg" xmlns:xlink="http://www.w3.org/1999/xlink">
    <title>Github</title>
    <g id="ICON-新版方图标" stroke="none" stroke-width="1" fill="none" fill-rule="evenodd">
        <g id="Github">
            <rect id="蒙版路径" fill="#000000" x="0" y="0" width="1024" height="1024"></rect>
            <path d="M512.365349,219.504407 C346.6163,219.504407 212.366812,353.753895 212.366812,519.502944 C212.366812,652.25214 298.24119,764.376152 417.490678,804.12842 C432.490678,806.754481 438.11513,797.749799 438.11513,789.878932 C438.11513,782.754188 437.740605,759.126225 437.740605,734.001628 C362.366081,747.876591 342.865934,715.626518 336.866227,698.751701 C333.491117,690.126664 318.866373,663.501774 306.116446,656.37703 C295.616593,650.751847 280.616593,636.876884 305.74119,636.501628 C329.366227,636.127103 346.241044,658.251847 351.866227,667.251408 C378.865642,712.626664 421.990825,699.876737 439.240166,692.001481 C441.865496,672.501335 449.740752,659.376884 458.365057,651.876884 C391.615569,644.376884 321.866227,618.501774 321.866227,503.752432 C321.866227,471.127835 333.491117,444.12842 352.616008,423.127981 C349.616154,415.627981 339.1163,384.8782 355.615861,343.628566 C355.615861,343.628566 380.740459,335.754042 438.11513,374.378347 C462.115422,367.628859 487.615276,364.253749 513.11513,364.253749 C538.614983,364.253749 564.114837,367.628859 588.114398,374.378347 C645.489069,335.378786 670.614398,343.628566 670.614398,343.628566 C687.113959,384.8782 676.614106,415.627981 673.614252,423.127981 C692.739142,444.12842 704.364033,470.752579 704.364033,503.752432 C704.364033,618.87703 634.239435,644.376884 567.489947,651.876884 C578.364325,661.251701 587.739874,679.251555 587.739874,707.376737 C587.739874,747.501335 587.364618,779.747751 587.364618,789.878932 C587.364618,797.749799 592.989801,807.127542 607.989801,804.12842 C667.544321,784.019671 719.295272,745.74502 755.957712,694.687525 C792.616495,643.629298 812.344867,582.360157 812.366812,519.502944 C812.366812,353.753895 678.113667,219.504407 512.365349,219.504407 Z" id="路径" fill="#FFFFFF"></path>
        </g>
    </g>
</svg>

<svg xmlns="http://www.w3.org/2000/svg" width="1024" height="1024"><g fill="none" fill-rule="evenodd"><path fill="#000" d="M0 0h1024v1024H0z"/><path fill="#FFF" d="M512.365 219.504c-165.749 0-299.998 134.25-299.998 299.999 0 132.75 85.874 244.873 205.124 284.625 15 2.626 20.624-6.378 20.624-14.25 0-7.124-.374-30.752-.374-55.876-75.375 13.875-94.875-18.375-100.875-35.25-3.375-8.625-18-35.25-30.75-42.375-10.5-5.625-25.5-19.5-.375-19.875 23.625-.375 40.5 21.75 46.125 30.75 27 45.375 70.125 32.625 87.374 24.75 2.625-19.5 10.5-32.625 19.125-40.125-66.75-7.5-136.499-33.375-136.499-148.125 0-32.624 11.625-59.624 30.75-80.624-3-7.5-13.5-38.25 3-79.5 0 0 25.124-7.874 82.5 30.75 24-6.75 49.5-10.124 75-10.124 25.499 0 50.999 3.375 74.998 10.124 57.375-39 82.5-30.75 82.5-30.75 16.5 41.25 6 72 3 79.5 19.125 21 30.75 47.625 30.75 80.624 0 115.125-70.125 140.625-136.874 148.125 10.874 9.375 20.25 27.375 20.25 55.5 0 40.124-.375 72.37-.375 82.502 0 7.87 5.625 17.249 20.625 14.25a300.518 300.518 0 0 0 147.968-109.441 300.554 300.554 0 0 0 56.409-175.185c0-165.75-134.253-299.999-300.002-299.999Z"/></g></svg>
